svg/clockface/clockfacerectsolid/clock_08_50.svg

<?xml version="1.0" encoding="UTF-8" standalone="no"?>
<svg
   height="1000"
   width="1000"
   version="1.1"
   viewBox="0 0 1000 1000"
   id="svg7"
   sodipodi:docname="rect_solid_clock_08_50.svg"
   xmlns:inkscape="http://www.inkscape.org/namespaces/inkscape"
   xmlns:sodipodi="http://sodipodi.sourceforge.net/DTD/sodipodi-0.dtd"
   xmlns="http://www.w3.org/2000/svg"
   xmlns:svg="http://www.w3.org/2000/svg">
  <defs
     id="defs11" />
  <sodipodi:namedview
     id="namedview9"
     pagecolor="#505050"
     bordercolor="#ffffff"
     borderopacity="1"
     inkscape:showpageshadow="0"
     inkscape:pageopacity="0"
     inkscape:pagecheckerboard="1"
     inkscape:deskcolor="#505050" />
  <path
     id="path15"
     style="color:#000000;fill:#000000;stroke-width:60;stroke-linecap:round;stroke-linejoin:round;-inkscape-stroke:none"
     d="M 339 129 C 223.17927 129 129 223.17927 129 339 L 129 659 C 129 774.82073 223.17927 869 339 869 L 659 869 C 774.82073 869 869 774.82073 869 659 L 869 339 C 869 223.17927 774.82073 129 659 129 L 339 129 z M 266.17383 335 A 30 30 0 0 1 281.17383 339.01953 L 515 474.01953 A 30.003 30.003 0 0 1 515 525.98047 L 359.11523 615.98047 A 30 30 0 0 1 318.13477 605 A 30 30 0 0 1 329.11523 564.01953 L 440 500 L 251.17383 390.98047 A 30 30 0 0 1 236.42969 361.08398 A 30 30 0 0 1 240.19141 350 A 30 30 0 0 1 266.17383 335 z " />
</svg>

<svg xmlns="http://www.w3.org/2000/svg" width="1000" height="1000"><path d="M339 129c-115.82 0-210 94.18-210 210v320c0 115.82 94.18 210 210 210h320c115.82 0 210-94.18 210-210V339c0-115.82-94.18-210-210-210H339zm-72.826 206a30 30 0 0 1 15 4.02L515 474.02a30.003 30.003 0 0 1 0 51.96l-155.885 90a30 30 0 0 1-40.98-10.98 30 30 0 0 1 10.98-40.98L440 500 251.174 390.98a30 30 0 0 1-14.744-29.896A30 30 0 0 1 240.19 350a30 30 0 0 1 25.983-15z" style="-inkscape-stroke:none" stroke-width="60" stroke-linecap="round" stroke-linejoin="round"/></svg>
